Numix-Light/scalable/actions/view-sort-descending-symbolic.svg

<?xml version="1.0" encoding="UTF-8" standalone="no"?>
<!-- Created with Inkscape (http://www.inkscape.org/) -->

<svg
   xmlns:dc="http://purl.org/dc/elements/1.1/"
   xmlns:cc="http://creativecommons.org/ns#"
   xmlns:rdf="http://www.w3.org/1999/02/22-rdf-syntax-ns#"
   xmlns:svg="http://www.w3.org/2000/svg"
   xmlns="http://www.w3.org/2000/svg"
   xmlns:sodipodi="http://sodipodi.sourceforge.net/DTD/sodipodi-0.dtd"
   xmlns:inkscape="http://www.inkscape.org/namespaces/inkscape"
   id="svg7384"
   style="enable-background:new"
   height="16"
   width="16"
   version="1.1"
   inkscape:version="0.91 r"
   sodipodi:docname="view-sort-descending-symbolic.svg">
  <sodipodi:namedview
     pagecolor="#ffffff"
     bordercolor="#666666"
     borderopacity="1"
     objecttolerance="10"
     gridtolerance="10"
     guidetolerance="10"
     inkscape:pageopacity="0"
     inkscape:pageshadow="2"
     inkscape:window-width="1920"
     inkscape:window-height="1056"
     id="namedview11"
     showgrid="true"
     inkscape:zoom="14.75"
     inkscape:cx="7.9847017"
     inkscape:cy="8.00101"
     inkscape:window-x="0"
     inkscape:window-y="24"
     inkscape:window-maximized="1"
     inkscape:current-layer="svg7384">
    <inkscape:grid
       type="xygrid"
       id="grid4167" />
  </sodipodi:namedview>
  <metadata
     id="metadata90">
    <rdf:RDF>
      <cc:Work
         rdf:about="">
        <dc:format>image/svg+xml</dc:format>
        <dc:type
           rdf:resource="http://purl.org/dc/dcmitype/StillImage" />
        <dc:title>Paper Symbolic Icon Theme</dc:title>
      </cc:Work>
    </rdf:RDF>
  </metadata>
  <title
     id="title8473">Paper Symbolic Icon Theme</title>
  <defs
     id="defs7386" />
  <g
     transform="matrix(-1,0,0,1,16.000303,0)"
     id="g4141"
     style="fill:#353535;fill-opacity:1">
    <path
       inkscape:connector-curvature="0"
       style="fill:#353535;fill-opacity:1"
       d="M 11,0 C 10.693941,0 10.403541,0.130465 10.1875,0.34375 L 6.34375,4.0625 c -0.4500871,0.438255 -0.4500871,1.155495 0,1.59375 0.4500856,0.438258 1.1749139,0.438258 1.625,0 L 10,3.6875 10,10 l 0,6 2,0 0,-6 0,-6.3125 2.03125,1.96875 c 0.330064,0.33308 0.843165,0.431146 1.28125,0.25 C 15.750584,5.725104 16.015,5.308302 16,4.84375 15.991,4.5515792 15.869291,4.264097 15.65625,4.0625 L 11.8125,0.34375 C 11.596459,0.130465 11.306059,0 11,0 Z"
       id="path4143" />
  </g>
  <g
     style="fill:#353535;fill-opacity:1;fill-rule:evenodd"
     transform="matrix(-1,0,0,1,16.000303,1)"
     id="g4145">
    <path
       inkscape:connector-curvature="0"
       d="M 6,2.5 C 6,3.8807119 4.8807119,5 3.5,5 2.1192881,5 1,3.8807119 1,2.5 1,1.1192881 2.1192881,0 3.5,0 4.8807119,0 6,1.1192881 6,2.5 Z"
       transform="matrix(0.8,0,0,0.8,-0.8,1)"
       id="path4147"
       style="fill:#353535;fill-opacity:1" />
    <path
       inkscape:connector-curvature="0"
       d="M 6,2.5 C 6,3.8807119 4.8807119,5 3.5,5 2.1192881,5 1,3.8807119 1,2.5 1,1.1192881 2.1192881,0 3.5,0 4.8807119,0 6,1.1192881 6,2.5 Z"
       transform="matrix(0.8,0,0,0.8,-0.8,6)"
       id="path4149"
       style="fill:#353535;fill-opacity:1" />
    <path
       inkscape:connector-curvature="0"
       d="M 6,2.5 C 6,3.8807119 4.8807119,5 3.5,5 2.1192881,5 1,3.8807119 1,2.5 1,1.1192881 2.1192881,0 3.5,0 4.8807119,0 6,1.1192881 6,2.5 Z"
       transform="matrix(0.8,0,0,0.8,-0.8,11)"
       id="path4151"
       style="fill:#353535;fill-opacity:1" />
  </g>
</svg>

<!-- Created with Inkscape (http://www.inkscape.org/) -->
<svg xmlns="http://www.w3.org/2000/svg" viewBox="0 0 16 16" style="enable-background:new">
 <g transform="matrix(-1,0,0,1,16.000303,0)" style="fill:#353535;fill-opacity:1">
  <path d="m 11 0 c -0.306 0 -0.596 0.13 -0.813 0.344 l -3.844 3.719 c -0.45 0.438 -0.45 1.155 0 1.594 0.45 0.438 1.175 0.438 1.625 0 l 2.031 -1.969 0 6.313 l 0 6 2 0 0 -6 0 -6.313 2.031 1.969 c 0.33 0.333 0.843 0.431 1.281 0.25 c 0.438 -0.181 0.703 -0.598 0.688 -1.063 -0.009 -0.292 -0.131 -0.58 -0.344 -0.781 l -3.844 -3.719 c -0.216 -0.213 -0.506 -0.344 -0.813 -0.344"/>
 </g>
 <g transform="matrix(-1,0,0,1,16.000303,1)" style="fill:#353535;fill-opacity:1;fill-rule:evenodd">
  <path d="m 6 2.5 c 0 1.381 -1.119 2.5 -2.5 2.5 -1.381 0 -2.5 -1.119 -2.5 -2.5 0 -1.381 1.119 -2.5 2.5 -2.5 1.381 0 2.5 1.119 2.5 2.5" transform="matrix(0.8,0,0,0.8,-0.8,1)"/>
  <path d="m 6 2.5 c 0 1.381 -1.119 2.5 -2.5 2.5 -1.381 0 -2.5 -1.119 -2.5 -2.5 0 -1.381 1.119 -2.5 2.5 -2.5 1.381 0 2.5 1.119 2.5 2.5" transform="matrix(0.8,0,0,0.8,-0.8,6)"/>
  <path d="m 6 2.5 c 0 1.381 -1.119 2.5 -2.5 2.5 -1.381 0 -2.5 -1.119 -2.5 -2.5 0 -1.381 1.119 -2.5 2.5 -2.5 1.381 0 2.5 1.119 2.5 2.5" transform="matrix(0.8,0,0,0.8,-0.8,11)"/>
 </g>
</svg>
